src/pos-icons/file-cad-box.svg

<svg height="24" viewBox="0 0 24 24" width="24" xmlns="http://www.w3.org/2000/svg"><path d="m5 3c-1.1 0-2 .9-2 2v14c0 1.1.9 2 2 2h14c1.1 0 2-.9 2-2v-14c0-1.1-.9-2-2-2m-7.75 2.25h1.5v1.13c.83 0 1.5.67 1.5 1.5v2.49l-.14.13 1.07 1.86c.37-.6.57-1.29.57-2h1.5c.01 1.25-.44 2.46-1.25 3.41l2 3.48v1.5l-1.3-.75-1.86-3.22c-1.72 1.13-3.95 1.13-5.68 0l-1.86 3.22-1.3.75v-1.5l3.89-6.75-.14-.13v-2.49c0-.83.67-1.5 1.5-1.5m.75 1.5c-.84 0-1.26 1.02-.66 1.62.6.58 1.61.15 1.6-.69 0-.52-.44-.93-.94-.93m-1 3.72-1.09 1.9c1.26.86 2.92.86 4.18 0l-1.09-1.9c-.57.51-1.43.51-2 0z"/></svg>

<?xml version="1.0" encoding="UTF-8"?><!DOCTYPE svg PUBLIC "-//W3C//DTD SVG 1.1//EN" "http://www.w3.org/Graphics/SVG/1.1/DTD/svg11.dtd"><svg xmlns="http://www.w3.org/2000/svg" xmlns:xlink="http://www.w3.org/1999/xlink" version="1.1" id="mdi-file-cad-box" width="24" height="24" viewBox="0 0 24 24"><path d="M5 3C3.9 3 3 3.9 3 5V19C3 20.1 3.9 21 5 21H19C20.1 21 21 20.1 21 19V5C21 3.9 20.1 3 19 3M11.25 5.25H12.75V6.38C13.58 6.38 14.25 7.05 14.25 7.88V10.37L14.11 10.5L15.18 12.36C15.55 11.76 15.75 11.07 15.75 10.36H17.25C17.26 11.61 16.81 12.82 16 13.77L18 17.25V18.75L16.7 18L14.84 14.78C13.12 15.91 10.89 15.91 9.16 14.78L7.3 18L6 18.75V17.25L9.89 10.5L9.75 10.37V7.88C9.75 7.05 10.42 6.38 11.25 6.38M12 7.88C11.16 7.88 10.74 8.9 11.34 9.5C11.94 10.08 12.95 9.65 12.94 8.81C12.94 8.29 12.5 7.88 12 7.88M11 11.6L9.91 13.5C11.17 14.36 12.83 14.36 14.09 13.5L13 11.6C12.43 12.11 11.57 12.11 11 11.6Z" /></svg>
